src/resources/assets/qr-code.svg

<svg xmlns="http://www.w3.org/2000/svg" width="16" height="16"><g fill="#ddd"><path d="M 8.855469 12.285156 L 10.570312 12.285156 L 10.570312 14 L 8.855469 14 Z M 12.285156 12.285156 L 14 12.285156 L 14 14 L 12.285156 14 Z M 8.855469 8.855469 L 10.570312 8.855469 L 10.570312 10.570312 L 8.855469 10.570312 Z M 10.570312 10.570312 L 12.285156 10.570312 L 12.285156 12.285156 L 10.570312 12.285156 Z M 12.285156 8.855469 L 14 8.855469 L 14 10.570312 L 12.285156 10.570312 Z M 2 3.714844 C 2 2.765625 2.765625 2 3.714844 2 L 5.429688 2 C 6.375 2 7.144531 2.765625 7.144531 3.714844 L 7.144531 5.429688 C 7.144531 6.375 6.375 7.144531 5.429688 7.144531 L 3.714844 7.144531 C 2.765625 7.144531 2 6.375 2 5.429688 Z M 3.714844 2.855469 C 3.242188 2.855469 2.855469 3.242188 2.855469 3.714844 L 2.855469 5.429688 C 2.855469 5.902344 3.242188 6.285156 3.714844 6.285156 L 5.429688 6.285156 C 5.902344 6.285156 6.285156 5.902344 6.285156 5.429688 L 6.285156 3.714844 C 6.285156 3.242188 5.902344 2.855469 5.429688 2.855469 Z M 3.714844 2.855469"/><path d="M 3.714844 3.714844 L 5.429688 3.714844 L 5.429688 5.429688 L 3.714844 5.429688 Z M 2 10.570312 C 2 9.625 2.765625 8.855469 3.714844 8.855469 L 5.429688 8.855469 C 6.375 8.855469 7.144531 9.625 7.144531 10.570312 L 7.144531 12.285156 C 7.144531 13.234375 6.375 14 5.429688 14 L 3.714844 14 C 2.765625 14 2 13.234375 2 12.285156 Z M 3.714844 9.714844 C 3.242188 9.714844 2.855469 10.097656 2.855469 10.570312 L 2.855469 12.285156 C 2.855469 12.757812 3.242188 13.144531 3.714844 13.144531 L 5.429688 13.144531 C 5.902344 13.144531 6.285156 12.757812 6.285156 12.285156 L 6.285156 10.570312 C 6.285156 10.097656 5.902344 9.714844 5.429688 9.714844 Z M 3.714844 9.714844"/><path d="M 3.714844 10.570312 L 5.429688 10.570312 L 5.429688 12.285156 L 3.714844 12.285156 Z M 8.855469 3.714844 C 8.855469 2.765625 9.625 2 10.570312 2 L 12.285156 2 C 13.234375 2 14 2.765625 14 3.714844 L 14 5.429688 C 14 6.375 13.234375 7.144531 12.285156 7.144531 L 10.570312 7.144531 C 9.625 7.144531 8.855469 6.375 8.855469 5.429688 Z M 10.570312 2.855469 C 10.097656 2.855469 9.714844 3.242188 9.714844 3.714844 L 9.714844 5.429688 C 9.714844 5.902344 10.097656 6.285156 10.570312 6.285156 L 12.285156 6.285156 C 12.757812 6.285156 13.144531 5.902344 13.144531 5.429688 L 13.144531 3.714844 C 13.144531 3.242188 12.757812 2.855469 12.285156 2.855469 Z M 10.570312 2.855469"/><path d="M 10.570312 3.714844 L 12.285156 3.714844 L 12.285156 5.429688 L 10.570312 5.429688 Z M 10.570312 3.714844"/></g></svg>

<svg xmlns="http://www.w3.org/2000/svg" width="16" height="16"><g fill="#ddd"><path d="M8.855 12.285h1.715V14H8.855zm3.43 0H14V14h-1.715zm-3.43-3.43h1.715v1.715H8.855zm1.715 1.715h1.715v1.715H10.57zm1.715-1.715H14v1.715h-1.715zM2 3.715C2 2.765 2.766 2 3.715 2H5.43c.945 0 1.715.766 1.715 1.715V5.43c0 .945-.77 1.715-1.715 1.715H3.715C2.765 7.145 2 6.375 2 5.43zm1.715-.86a.862.862 0 00-.86.86V5.43c0 .472.387.855.86.855H5.43a.855.855 0 00.855-.855V3.715a.859.859 0 00-.855-.86zm0 0"/><path d="M3.715 3.715H5.43V5.43H3.715zM2 10.57c0-.945.766-1.715 1.715-1.715H5.43c.945 0 1.715.77 1.715 1.715v1.715c0 .95-.77 1.715-1.715 1.715H3.715C2.765 14 2 13.234 2 12.285zm1.715-.855a.859.859 0 00-.86.855v1.715c0 .473.387.86.86.86H5.43a.859.859 0 00.855-.86V10.57a.855.855 0 00-.855-.855zm0 0"/><path d="M3.715 10.57H5.43v1.715H3.715zm5.14-6.855c0-.95.77-1.715 1.715-1.715h1.715C13.235 2 14 2.766 14 3.715V5.43c0 .945-.766 1.715-1.715 1.715H10.57c-.945 0-1.715-.77-1.715-1.715zm1.715-.86a.859.859 0 00-.855.86V5.43c0 .472.383.855.855.855h1.715c.473 0 .86-.383.86-.855V3.715a.862.862 0 00-.86-.86zm0 0"/><path d="M10.57 3.715h1.715V5.43H10.57zm0 0"/></g></svg>
